shared/images/iconfont/kb-iconfont-edit-16.svg

<?xml version="1.0" encoding="UTF-8"?>
<svg width="16px" height="16px" viewBox="0 0 16 16" version="1.1" xmlns="http://www.w3.org/2000/svg" xmlns:xlink="http://www.w3.org/1999/xlink">
    <!-- Generator: sketchtool 49.3 (51167) - http://www.bohemiancoding.com/sketch -->
    <title>6011E770-42F3-448B-B0FF-6CB8DCE15AD2</title>
    <desc>Created with sketchtool.</desc>
    <defs></defs>
    <g id="Colors,-icons" stroke="none" stroke-width="1" fill="none" fill-rule="evenodd">
        <g id="Icons-2" transform="translate(-491.000000, -249.000000)">
            <g id="kb-iconfont-edit-16" transform="translate(491.000000, 249.000000)">
                <g id="kb-iconfont-edit">
                    <rect id="icon-area" fill="#D8D8D8" opacity="0" x="0" y="0" width="16" height="16"></rect>
                    <path d="M3.02460427,9.93585337 L10.3994281,2.43736691 C10.9549013,1.87257942 11.8618047,1.85216761 12.4423699,2.39138612 L13.5354229,3.40659424 C13.5470796,3.4174208 13.5585576,3.42843635 13.5698523,3.43963648 C14.1419566,4.00695101 14.1435879,4.92837296 13.5734959,5.49769 L6.08232545,12.9786775 L3.02460427,9.93585337 Z M4.64810189,13.4903603 L2.92989142,13.9726719 C2.80008472,14.0091094 2.66267983,14.0091094 2.53287314,13.9726719 C2.14421193,13.8635724 1.91801534,13.4615927 2.02764891,13.0748251 L2.51232181,11.3649856 L4.64810189,13.4903603 Z" id="Combined-Shape" fill="#000000"></path>
                </g>
            </g>
        </g>
    </g>
</svg>

<svg xmlns="http://www.w3.org/2000/svg" width="16" height="16" viewBox="0 0 16 16">
    <path fill="#000" fill-rule="evenodd" d="M3.025 9.936l7.374-7.499a1.468 1.468 0 0 1 2.043-.046l1.093 1.016a1.45 1.45 0 0 1 .038 2.091l-7.49 7.48-3.058-3.042zm1.623 3.554l-1.718.483a.727.727 0 0 1-.902-.898l.484-1.71 2.136 2.125z"/>
</svg>
